X:3620
T:Cuckoo,The. JC.064
M:C|
L:1/8
Q:200
S:John Clare,Poet,Helpston. (1793-1864)
R:Air
O:England
A:Northamptonshire
N:
Z:P Headford
K:G
G3AB2G2|c2e2d2z2|g3ed3B|AGABA2z2|G3AB2G2|c2e2d2z2|!
g3ed3B|{B}AGABG2z2|g3ag2f2|e2g2d2z2|c3ed2c2|B3cd2z2|!
g3ag2f2|e2g2d2z2|c2A2B2G2|F2A2A4|G3AB2G2|c2e2d2z2|!
g3ed3B|AG(AB)G4|gdz2gdz2|gdz2gdz2|g3ed3B|{B}AG(AB)G4|]
W:Song text exists. See Deacon.


